icons/1_Primary/Purelymail.svg

<svg width="1024" height="1024" viewBox="0 0 1024 1024" fill="none" xmlns="http://www.w3.org/2000/svg">
<g clip-path="url(#clip0_2_3237)">
<path d="M512 1024C794.77 1024 1024 794.77 1024 512C1024 229.23 794.77 0 512 0C229.23 0 0 229.23 0 512C0 794.77 229.23 1024 512 1024Z" fill="#8C72BD"/>
<path d="M247 296L259.35 314.05L263.68 320.38L260.35 728L756.69 720.22L763.22 316.37L777 297.37H763.52V296.17L487.34 296.66L247 296ZM506.58 322.9C529.307 322.898 551.525 329.636 570.423 342.261C589.321 354.886 604.051 372.832 612.75 393.829C621.449 414.826 623.726 437.931 619.293 460.222C614.861 482.513 603.917 502.989 587.847 519.06C571.777 535.132 551.302 546.077 529.012 550.511C506.721 554.946 483.616 552.671 462.618 543.974C441.621 535.277 423.673 520.549 411.047 501.652C398.42 482.755 391.68 460.537 391.68 437.81C391.675 422.719 394.643 407.775 400.415 393.832C406.188 379.889 414.651 367.219 425.321 356.548C435.991 345.877 448.66 337.413 462.603 331.639C476.545 325.866 491.489 322.896 506.58 322.9ZM727.13 326.9L621.54 472.26C630.045 443.912 627.775 413.42 615.164 386.644C602.553 359.869 580.492 338.698 553.22 327.2L727.13 326.89V326.9ZM459.56 327.38C433.863 338.32 412.787 357.881 399.964 382.692C387.14 407.503 383.373 436.01 389.31 463.3L296.52 327.66L459.52 327.37L459.56 327.38ZM731.83 359.58L726.7 676.73L580.75 567.57L731.82 359.57L731.83 359.58ZM294 364.72L435.92 572.19L291.4 683.19L294 364.73V364.72ZM506.58 371.6C492.209 371.6 478.161 375.861 466.212 383.845C454.263 391.829 444.95 403.177 439.451 416.454C433.951 429.731 432.513 444.341 435.316 458.435C438.12 472.53 445.04 485.477 455.202 495.638C465.363 505.8 478.31 512.72 492.405 515.524C506.499 518.327 521.109 516.889 534.386 511.389C547.663 505.89 559.011 496.577 566.995 484.628C574.979 472.679 579.24 458.631 579.24 444.26C579.232 424.99 571.573 406.512 557.946 392.887C544.319 379.262 525.84 371.605 506.57 371.6H506.58ZM457.95 404C458.605 404.028 459.257 404.105 459.9 404.23C467.36 405.68 472.3 413.23 470.9 421.07C469.5 428.91 462.34 434.07 454.9 432.65C447.46 431.23 442.5 423.65 443.9 415.81C444.411 412.472 446.118 409.434 448.703 407.261C451.288 405.089 454.574 403.93 457.95 404ZM575 536.39L505.1 632.57L440.28 537.82C460.293 551.109 483.838 558.078 507.86 557.823C531.882 557.568 555.273 550.101 575 536.39ZM567.27 586.18L706.45 690.31L311.82 696.5L448.92 591.2L504.53 672.5L567.22 586.19L567.27 586.18Z" fill="white"/>
</g>
<defs>
<clipPath id="clip0_2_3237">
<rect width="1024" height="1024" fill="white"/>
</clipPath>
</defs>
</svg>

<svg xmlns="http://www.w3.org/2000/svg" viewBox="0 0 1024 1024">
   <circle cx="512" cy="512" r="512" style="fill:#580062"/>
   <path d="m247 296 12.35 18.05 4.33 6.33L260.35 728l496.34-7.78 6.53-403.85 13.78-19h-13.48v-1.2l-276.18.49L247 296Zm259.58 26.9a114.91 114.91 0 1 1-114.9 114.91 114.87 114.87 0 0 1 114.9-114.91Zm220.55 4L621.54 472.26a120 120 0 0 0-68.32-145.06l173.91-.31Zm-267.57.48a120 120 0 0 0-70.25 135.92l-92.79-135.64 163-.29Zm272.27 32.2-5.13 317.15-145.95-109.16 151.07-208ZM294 364.72l141.92 207.47-144.52 111 2.6-318.46Zm212.58 6.88a72.66 72.66 0 1 0 72.66 72.66 72.69 72.69 0 0 0-72.67-72.66ZM457.95 404a13.11 13.11 0 0 1 1.95.23c7.46 1.45 12.4 9 11 16.84s-8.56 13-16 11.58-12.4-9-11-16.84A13.92 13.92 0 0 1 457.95 404ZM575 536.39l-69.9 96.18-64.82-94.75A119.87 119.87 0 0 0 575 536.39Zm-7.73 49.79 139.18 104.13-394.63 6.19 137.1-105.3 55.61 81.3 62.69-86.31Z" style="fill:#fff"/>
</svg>
